X: 29837
T: O'Dea's
R: jig
M: 6/8
K: Eminor
|:~G3 G2 A|BGD ~E3|DGB dD/G/d|edB def|
~g3 ged|edg edB|~e3 edB|1 gdB AdB:|2 gdB ABd||
~e3 edc|ded d2 e|dBG GBd|edB AFD|GBd ~g3|ged edB|~e3 edB|gdB ABd|
~c3 cBA|Bde d2 e|dBG GBd|edB AFD|GBd ~g3|ged edB|~e3 edB|gdB AdB||

